X: 9616
T: Dawn, The
R: reel
M: 4/4
K: Amajor
A,2CE D2FA|E2GB Ac{d}cA|BE(3EEE cE(3EEE|BdcB AFEC|
A,2CE D2FA|E2GB A2ce|fece afec|dcBd cAA2:|
a3e fece|fbba gee2|(3gfe be (3gfe be|ac'ea c'eac'|
a3e fece|dcBc defg|(3agf ec f2ec|dcBd cAA2:|

